workspaces/client/public/images/svg/transfer.svg

<svg width="22" height="22" viewBox="0 0 22 22" fill="none" xmlns="http://www.w3.org/2000/svg">
<path fill-rule="evenodd" clip-rule="evenodd" d="M14.4046 3.00058C14.1114 3.31639 14.1296 3.81013 14.4455 4.10338L16.6308 6.13266L7.69333 6.13266C7.26236 6.13266 6.91299 6.48203 6.91299 6.913C6.91299 7.34396 7.26236 7.69333 7.69333 7.69333L16.6308 7.69333L14.4455 9.72262C14.1296 10.0159 14.1114 10.5096 14.4046 10.8254C14.6979 11.1412 15.1916 11.1595 15.5074 10.8663L19.149 7.48482C19.308 7.33717 19.3983 7.12998 19.3983 6.913C19.3983 6.69601 19.308 6.48882 19.149 6.34117L15.5074 2.95973C15.1916 2.66648 14.6979 2.68477 14.4046 3.00058ZM7.74493 11.3241C7.45168 11.0083 6.95794 10.99 6.64213 11.2833L3.00057 14.6647C2.84157 14.8124 2.75122 15.0196 2.75122 15.2365C2.75122 15.4535 2.84157 15.6607 3.00057 15.8084L6.64213 19.1898C6.95794 19.4831 7.45168 19.4648 7.74493 19.149C8.03818 18.8332 8.01989 18.3394 7.70408 18.0462L5.5187 16.0169H14.4562C14.8872 16.0169 15.2365 15.6675 15.2365 15.2365C15.2365 14.8056 14.8872 14.4562 14.4562 14.4562H5.5187L7.70408 12.4269C8.01989 12.1337 8.03818 11.6399 7.74493 11.3241Z" fill="#0A0A0A"/>
</svg>

<svg xmlns="http://www.w3.org/2000/svg" width="22" height="22" fill="none"><path fill="#0A0A0A" fill-rule="evenodd" d="M14.405 3a.78.78 0 0 0 .04 1.103l2.186 2.03H7.693a.78.78 0 1 0 0 1.56h8.938l-2.186 2.03a.78.78 0 1 0 1.062 1.143l3.642-3.381a.78.78 0 0 0 0-1.144L15.507 2.96a.78.78 0 0 0-1.102.04m-6.66 8.324a.78.78 0 0 0-1.103-.04l-3.641 3.38a.78.78 0 0 0 0 1.144l3.641 3.382a.78.78 0 1 0 1.062-1.144l-2.185-2.03h8.937a.78.78 0 0 0 0-1.56H5.52l2.185-2.03a.78.78 0 0 0 .04-1.102" clip-rule="evenodd"/></svg>
